X:1
T:Title
%%score 1 2 3 4
L:1/8
Q:1/4=135
M:4/4
K:A
V:1 treble nm="Grand Piano"
V:2 bass nm="Grand Piano"
V:3 bass nm="Grand Piano, Melody"
V:4 bass nm="Grand Piano"
V:1
 c8 | c2 B2 A2 B2 | A4 B4 | c8 | e4 c2 B2 | A4 B4 | B6 z2 | z8 | z4 z2 c2 | e2 e2 e2 d2 | c4 B4 | %11
 B6 B2 | e3 d c2 B2 | A4 B4 | c6 z2 | z8 | z4 z2 c2 | e2 e2 e2 d2 | c4 B4 | B6 B2 | e3 d c2 B2 | %21
 A4 B4 | c8 |] %23
V:2
 E,8 | E,2 E,2 A,2 G,2 | F,4 E,4 | E,8 | E,4 E,2 G,2 | A,4 F,4 | G,6 z2 | z8 | z8 | z4 z2 E,2 | %10
 A,2 A,2 B,2 G,F, | E,2 E,2 E,2 E,2 | A,3 B, A,2 G,2 | F,4 E,4 | E,6 z2 | z8 | z8 | z4 z2 E,2 | %18
 A,2 A,2 B,2 G,F, | E,2 E,2 E,2 E,2 | A,3 B, A,2 G,2 | F,4 E,4 | E,8 |] %23
V:3
 A,8 | A,2 B,2 C2 D2 | C4 B,4 | A,8 | B,4[K:treble] C2 D2 | E4 D4 | E6 z2 | z4 z2 A,2 | %8
 C2 C2 C2 C2 | B,2 B,2 B,C D2 | E4 D4 | E6 E2 | A,3 B, C2 D2 | C4 B,4 | A,6 z2 | z4 z2 A,2 | %16
 C2 C2 C2 C2 | B,2 B,2 B,C D2 | E4 D4 | E6 E2 | A,3 B, C2 D2 | C4 B,4 | A,8 |] %23
V:4
 A,8 | A,2 G,2 A,2 F,2 | C,4 E,4 | A,,8 | E,4 A,2 G,2 | A,4 B,4 | E,6 E,2 | A,2 A,2 A,2 E,2 | %8
 F,2 F,2 F,2 A,2 | E,2 E,2 E,2 G,2 | A,4 B,4 | E,6 E,2 | A,3 G, F,2 E,2 | A,4 E,4 | A,,6 E,2 | %15
 A,2 A,2 A,2 E,2 | F,2 F,2 F,2 A,2 | E,2 E,2 E,2 G,2 | A,4 B,4 | E,6 E,2 | A,3 G, F,2 E,2 | %21
 A,4 E,4 | A,,8 |] %23

